src/pos-icons/alpha-r.svg

<svg height="24" viewBox="0 0 24 24" width="24" xmlns="http://www.w3.org/2000/svg"><path d="m9 7v10h2v-4h.8l1.2 4h2l-1.24-4.15c.74-.3 1.24-1.01 1.24-1.85v-2a2 2 0 0 0 -2-2zm2 2h2v2h-2z"/></svg>

<?xml version="1.0" encoding="UTF-8"?><!DOCTYPE svg PUBLIC "-//W3C//DTD SVG 1.1//EN" "http://www.w3.org/Graphics/SVG/1.1/DTD/svg11.dtd"><svg xmlns="http://www.w3.org/2000/svg" xmlns:xlink="http://www.w3.org/1999/xlink" version="1.1" id="mdi-alpha-r" width="24" height="24" viewBox="0 0 24 24"><path d="M9,7V17H11V13H11.8L13,17H15L13.76,12.85C14.5,12.55 15,11.84 15,11V9A2,2 0 0,0 13,7H9M11,9H13V11H11V9Z" /></svg>
